icon-themes/sifr_svg/cmd/sc_basicshapes.octagon.svg

<svg viewBox="0 0 16 16" xmlns="http://www.w3.org/2000/svg"><g fill="#555753"><path d="m5 1-4 4v6l4 4h6l4-4v-6l-4-4zm.828125 2h4.34375l2.828125 2.828125v4.34375l-2.828125 2.828125h-4.34375l-2.828125-2.828125v-4.34375z"/><path d="m5.828125 3h4.34375l2.828125 2.828125v4.34375l-2.828125 2.828125h-4.34375l-2.828125-2.828125v-4.34375z" opacity=".35"/></g></svg>

<svg xmlns="http://www.w3.org/2000/svg" viewBox="0 0 16 16">
  <path
     style="fill:#555753"
     d="M 5 1 L 1 5 L 1 11 L 5 15 L 11 15 L 15 11 L 15 5 L 11 1 L 5 1 z M 5.828125 3 L 10.171875 3 L 13 5.828125 L 13 10.171875 L 10.171875 13 L 5.828125 13 L 3 10.171875 L 3 5.828125 L 5.828125 3 z "
     />
  <path
     style="fill:#555753;opacity:0.35"
     d="m 5.828125,3 h 4.34375 L 13,5.828125 v 4.34375 L 10.171875,13 H 5.828125 L 3,10.171875 v -4.34375 z"
     />
</svg>
